X:3
T:Fanteladda (Finnskogs)
Z:2006 Brian Wilson <Brian.Wilson@alumni.brown.edu>
Z:Learned from Amy Parker, revised from recording from Alix Cordray
M:3/4
L:1/8
K:D
|: "D"AB "D/a"AG ""FG | "D"A2 "D/a"d2 ""f2 | "D"AB "D/a"AG ""FE
|[1 "D/a"E2 "D"D2 ""D2  :|[2 "D/a"E2 "D"D2 ""Ac
|: "A"e2 "A"e2 ""Ad | "D"f2 "D"f2 "D/f#"df | "G"gf "G"ed "A"cB | "D"A2 "D"A2 BA
|  "Em"G2 "Em"G2 AG | "D"F2 "D"F2 GF | "A"EF "A/c#"G>A "A/e"Bc
|[1 "D"d2 "D"d2 Ac :|[2 "D"d2 "D"d4 ||
P:Harmony
|: FG FE DB, | D2 F2 A2 | DF FE DB, |[1 C2 D2-D2 :|[2  C2 D2 EA |
| c2 c2 FA | A2 A2 A,D | ED CB, A,G, | A,2 C2 D2
| B,2 B,2 DB, | D2 D2 B,D | CD EF GE | F2 F4 ||
